/* XPM */
static char *DOF_xpm[]={
"32 32 950 2",
"      c #3F4273",
" 0    c #4B508D",
" 1    c #575DA2",
" 2    c #595FA7",
" 3    c #585DA6",
" 4    c #565BA3",
" 5    c #5559A2",
" 6    c #5358A1",
" 7    c #53589E",
" 8    c #51559A",
" 9    c #4F5399",
" a    c #4D5296",
" b    c #4A5092",
" c    c #484E8E",
" d    c #484D8C",
" e    c #565577",
" f    c #86754A",
" g    c #85744B",
" h    c #7B6E51",
" i    c #59556D",
" j    c #41437C",
" k    c #40437B",
" l    c #565468",
" m    c #897647",
" n    c #978041",
" o    c #7A6C4E",
" p    c #444571",
" q    c #3D4073",
" r    c #918353",
" s    c #877645",
" t    c #575361",
" u    c #484B86",
" v    c #53579B",
" w    c #555BA2",
" x    c #5458A0",
" y    c #54599E",
" z    c #51569D",
" A    c #505399",
" B    c #4D5398",
" C    c #4D5195",
" D    c #4B5092",
" E    c #494E90",
" F    c #474C8B",
" G    c #464A89",
" H    c #464888",
" I    c #59576F",
" J    c #B09647",
" K    c #A0885F",
" L    c #A68C57",
" M    c #A88E3A",
" N    c #514F6B",
" O    c #565368",
" P    c #AF933A",
" Q    c #A38955",
" R    c #977F5E",
" S    c #CAA548",
" T    c #897741",
" U    c #4D5174",
" V    c #AB9844",
" W    c #A58956",
" X    c #A48A56",
" Y    c #4F4C6A",
" Z    c #4D5292",
" &    c #52589B",
"0     c #52589E",
"00    c #51569B",
"01    c #50549A",
"02    c #4E5399",
"03    c #515592",
"04    c #847855",
"05    c #847844",
"06    c #7F7441",
"07    c #4C4F84",
"08    c #454A89",
"09    c #444785",
"0a    c #424684",
"0b    c #424683",
"0c    c #5A576A",
"0d    c #9A894C",
"0e    c #3C417A",
"0f    c #3D417A",
"0g    c #5E5961",
"0h    c #706652",
"0i    c #847643",
"0j    c #615C64",
"0k    c #393D71",
"0l    c #393E70",
"0m    c #52506B",
"0n    c #B49A3C",
"0o    c #5C5A68",
"0p    c #A5903B",
"0q    c #56535E",
"0r    c #3E406C",
"0s    c #515498",
"0t    c #505596",
"0u    c #4E5497",
"0v    c #4F5296",
"0w    c #4C5093",
"0x    c #615F7A",
"0y    c #A68E38",
"0z    c #C8A937",
"0A    c #BCA428",
"0B    c #AE991E",
"0C    c #736E34",
"0D    c #424482",
"0E    c #3F4581",
"0F    c #3F437D",
"0G    c #3E417D",
"0H    c #5B5763",
"0I    c #95834B",
"0J    c #393F74",
"0K    c #3A3C75",
"0L    c #565261",
"0M    c #81724B",
"0N    c #8A7941",
"0O    c #42436D",
"0P    c #383C6F",
"0Q    c #373B6D",
"0R    c #383A6D",
"0S    c #9C863C",
"0T    c #6D655E",
"0U    c #A58D37",
"0V    c #B59742",
"0W    c #AE9244",
"0X    c #3F4168",
"0Y    c #4E5394",
"0Z    c #4C5193",
"0&    c #4D5091",
"1     c #4B4F8F",
"10    c #484D8F",
"11    c #746931",
"12    c #B89B30",
"13    c #D9B84E",
"14    c #D1B53F",
"15    c #B6A123",
"16    c #746E31",
"17    c #3E437D",
"18    c #3D417B",
"19    c #3B3E78",
"1a    c #3B3F77",
"1b    c #5C575E",
"1c    c #90804B",
"1d    c #383B71",
"1e    c #484667",
"1f    c #8D7A3E",
"1g    c #645D5B",
"1h    c #86784E",
"1i    c #75684A",
"1j    c #3C3D67",
"1k    c #36396A",
"1l    c #625954",
"1m    c #877642",
"1n    c #686160",
"1o    c #8C7B41",
"1p    c #363B69",
"1q    c #373B68",
"1r    c #373A6A",
"1s    c #4A508D",
"1t    c #494E8D",
"1u    c #494E8C",
"1v    c #484D8A",
"1w    c #484D82",
"1x    c #736618",
"1y    c #7A6B20",
"1z    c #D0B351",
"1A    c #F1E26A",
"1B    c #BFA82A",
"1C    c #5B5953",
"1D    c #3A3E79",
"1E    c #3A3E77",
"1F    c #383C74",
"1G    c #373B70",
"1H    c #59545E",
"1I    c #AB9238",
"1J    c #A98E3A",
"1K    c #B59837",
"1L    c #907C4F",
"1M    c #33376A",
"1N    c #3A3C67",
"1O    c #A88E48",
"1P    c #AC913C",
"1Q    c #AB9039",
"1R    c #968144",
"1S    c #3D3D64",
"1T    c #635E5E",
"1U    c #897641",
"1V    c #363968",
"1W    c #363966",
"1X    c #353A66",
"1Y    c #474C89",
"1Z    c #464A88",
"1&    c #454A88",
"2     c #444884",
"20    c #424783",
"21    c #655C3A",
"22    c #7A6B17",
"23    c #817B16",
"24    c #F3EC71",
"25    c #DACA51",
"26    c #83774B",
"27    c #5C5853",
"28    c #807534",
"29    c #867930",
"2a    c #817435",
"2b    c #5A534E",
"2c    c #454464",
"2d    c #444365",
"2e    c #323568",
"2f    c #313566",
"2g    c #313565",
"2h    c #313464",
"2i    c #444362",
"2j    c #434161",
"2k    c #313564",
"2l    c #333665",
"2m    c #454461",
"2n    c #4B4961",
"2o    c #333865",
"2p    c #343865",
"2q    c #343864",
"2r    c #464986",
"2s    c #434783",
"2t    c #424680",
"2u    c #464778",
"2v    c #545362",
"2w    c #5E5A4C",
"2x    c #676245",
"2y    c #B3A931",
"2z    c #E2DC65",
"2A    c #95831D",
"2B    c #8D7B1B",
"2C    c #89751D",
"2D    c #8A761F",
"2E    c #8A7720",
"2F    c #8D7924",
"2G    c #8A7926",
"2H    c #807631",
"2I    c #484851",
"2J    c #2E3262",
"2K    c #2F3263",
"2L    c #2F3262",
"2M    c #313261",
"2N    c #303361",
"2O    c #303461",
"2P    c #303462",
"2Q    c #323563",
"2R    c #323562",
"2S    c #333762",
"2T    c #333763",
"2U    c #343863",
"2V    c #424780",
"2W    c #424580",
"2X    c #40437C",
"2Y    c #605847",
"2Z    c #867313",
"2&    c #8C7913",
"3     c #867715",
"30    c #94852D",
"31    c #A99838",
"32    c #8C7918",
"33    c #897418",
"34    c #8A7818",
"35    c #8A781B",
"36    c #8B781C",
"37    c #907C1C",
"38    c #907D1E",
"39    c #917E20",
"3a    c #93811E",
"3b    c #988F0E",
"3c    c #716E1D",
"3d    c #343655",
"3e    c #2D315E",
"3f    c #2E315F",
"3g    c #2F315F",
"3h    c #2F325E",
"3i    c #2F325F",
"3j    c #313461",
"3k    c #313460",
"3l    c #323461",
"3m    c #333662",
"3n    c #3F447C",
"3o    c #3F427B",
"3p    c #695F3B",
"3q    c #8A7512",
"3r    c #927D12",
"3s    c #8F8216",
"3t    c #907E1F",
"3u    c #8D7F1C",
"3v    c #8D7F23",
"3w    c #8F811A",
"3x    c #928215",
"3y    c #948217",
"3z    c #948118",
"3A    c #948019",
"3B    c #958019",
"3C    c #94811B",
"3D    c #94811D",
"3E    c #94811E",
"3F    c #8A7D13",
"3G    c #807C07",
"3H    c #7B7612",
"3I    c #303256",
"3J    c #2B2F5C",
"3K    c #2C305B",
"3L    c #2D305C",
"3M    c #2D305D",
"3N    c #2E315D",
"3O    c #2E305E",
"3P    c #2F335F",
"3Q    c #31345F",
"3R    c #313560",
"3S    c #3E4178",
"3T    c #53515E",
"3U    c #927C10",
"3V    c #918110",
"3W    c #8C8215",
"3X    c #8B7927",
"3Y    c #8A7924",
"3Z    c #887B15",
"3&    c #887822",
"4     c #897927",
"40    c #8A801E",
"41    c #8B8519",
"42    c #8F8516",
"43    c #928617",
"44    c #968518",
"45    c #98841A",
"46    c #97841A",
"47    c #98841B",
"48    c #94821A",
"49    c #747103",
"4a    c #747303",
"4b    c #5C5C21",
"4c    c #292C59",
"4d    c #2A2D58",
"4e    c #2A2E59",
"4f    c #2B2F5A",
"4g    c #2C305A",
"4h    c #2E305B",
"4i    c #2F315D",
"4j    c #2F325C",
"4k    c #30335D",
"4l    c #3D4074",
"4m    c #807421",
"4n    c #8B8210",
"4o    c #8A8017",
"4p    c #897923",
"4q    c #8A732B",
"4r    c #86791C",
"4s    c #837A13",
"4t    c #847918",
"4u    c #867427",
"4v    c #88752C",
"4w    c #897A25",
"4x    c #8A801D",
"4y    c #8B8418",
"4z    c #8D8617",
"4A    c #8F8716",
"4B    c #918718",
"4C    c #958519",
"4D    c #96841A",
"4E    c #7A7409",
"4F    c #747102",
"4G    c #757103",
"4H    c #353749",
"4I    c #292C57",
"4J    c #292D58",
"4K    c #2A2E58",
"4L    c #2C2E58",
"4M    c #2C2F5A",
"4N    c #2E2F59",
"4O    c #2D315C",
"4P    c #2F315B",
"4Q    c #30325C",
"4R    c #4C4D5C",
"4S    c #888210",
"4T    c #887E16",
"4U    c #887721",
"4V    c #87712A",
"4W    c #867426",
"4X    c #857819",
"4Y    c #817712",
"4Z    c #827915",
"4&    c #83761B",
"5     c #867329",
"50    c #87732C",
"51    c #887926",
"52    c #8D8123",
"53    c #8A801C",
"54    c #8A8419",
"55    c #8A8617",
"56    c #8C8615",
"57    c #8E8618",
"58    c #7D750C",
"59    c #6C6903",
"5a    c #6E6B03",
"5b    c #414335",
"5c    c #282A54",
"5d    c #2A2B55",
"5e    c #2B2D57",
"5f    c #2B2E58",
"5g    c #2C2F58",
"5h    c #2E2F5A",
"5i    c #2D305A",
"5j    c #2F325B",
"5k    c #605F41",
"5l    c #867D17",
"5m    c #86781D",
"5n    c #847027",
"5o    c #826D28",
"5p    c #C4A851",
"5q    c #857718",
"5r    c #7F7711",
"5s    c #817714",
"5t    c #827618",
"5u    c #82731F",
"5v    c #826F29",
"5w    c #85702B",
"5x    c #796620",
"5y    c #847520",
"5z    c #887E1F",
"5A    c #89811C",
"5B    c #8A8518",
"5C    c #8A8517",
"5D    c #7A750D",
"5E    c #686203",
"5F    c #686403",
"5G    c #54521C",
"5H    c #262A52",
"5I    c #282953",
"5J    c #292A54",
"5K    c #292C56",
"5L    c #2A2E57",
"5M    c #2C2F57",
"5N    c #2E2F58",
"5O    c #2D3259",
"5P    c #6A6535",
"5Q    c #85771F",
"5R    c #857226",
"5S    c #816E28",
"5T    c #806F22",
"5U    c #7C671E",
"5V    c #7E6E18",
"5W    c #7E7611",
"5X    c #7F7611",
"5Y    c #807615",
"5Z    c #80721B",
"5&    c #807020",
"6     c #826F28",
"60    c #66561B",
"61    c #7C6A23",
"62    c #867825",
"63    c #887C20",
"64    c #887F1D",
"65    c #89811B",
"66    c #76700E",
"67    c #635C04",
"68    c #625E03",
"69    c #514E18",
"6a    c #252851",
"6b    c #272952",
"6c    c #282B54",
"6d    c #282B53",
"6e    c #292B56",
"6f    c #2B2F56",
"6g    c #2B2E57",
"6h    c #2E3158",
"6i    c #6F6731",
"6j    c #857423",
"6k    c #837029",
"6l    c #7F6C27",
"6m    c #7F6F1F",
"6n    c #635412",
"6o    c #746812",
"6p    c #7E7410",
"6q    c #7E7511",
"6r    c #7E7413",
"6s    c #7D7218",
"6t    c #7E711C",
"6u    c #817022",
"6v    c #544B12",
"6w    c #7B6828",
"6x    c #85732A",
"6y    c #867723",
"6z    c #877921",
"6A    c #867C20",
"6B    c #6B620C",
"6C    c #5C5503",
"6D    c #5F5702",
"6E    c #4F4A17",
"6F    c #242850",
"6G    c #262850",
"6H    c #272A51",
"6I    c #292A53",
"6J    c #282C53",
"6K    c #292D54",
"6L    c #2B2D56",
"6M    c #2C3057",
"6N    c #6F6333",
"6O    c #846F27",
"6P    c #826D29",
"6Q    c #776920",
"6R    c #6E6118",
"6S    c #615217",
"6T    c #9E8C29",
"6U    c #887F1C",
"6V    c #7C730F",
"6W    c #7E7412",
"6X    c #7C7114",
"6Y    c #716815",
"6Z    c #675C16",
"6&    c #605818",
"7     c #746423",
"70    c #846F2D",
"71    c #84712A",
"72    c #857525",
"73    c #857823",
"74    c #62590A",
"75    c #594F03",
"76    c #5A5003",
"77    c #403D25",
"78    c #25274F",
"79    c #272951",
"7a    c #2B2E55",
"7b    c #2D2E57",
"7c    c #665D3A",
"7d    c #836D2A",
"7e    c #816F24",
"7f    c #615A14",
"7g    c #605B0F",
"7h    c #998919",
"7i    c #AD982F",
"7j    c #E0CC66",
"7k    c #D0C978",
"7l    c #989240",
"7m    c #7C7414",
"7n    c #5F5C0C",
"7o    c #615C10",
"7p    c #71631E",
"7q    c #836F2A",
"7r    c #846F2B",
"7s    c #85702A",
"7t    c #807023",
"7u    c #544B07",
"7v    c #574E04",
"7w    c #5A5102",
"7x    c #353336",
"7y    c #24274D",
"7z    c #25264F",
"7A    c #272851",
"7B    c #303050",
"7C    c #555044",
"7D    c #3B3A35",
"7E    c #343543",
"7F    c #2F304D",
"7G    c #2D2F56",
"7H    c #514A4F",
"7I    c #816E21",
"7J    c #615A13",
"7K    c #645E0E",
"7L    c #826E11",
"7M    c #8B7C1A",
"7N    c #897A1D",
"7O    c #AD9E36",
"7P    c #DECB71",
"7Q    c #DAD6AA",
"7R    c #8E8A4A",
"7S    c #615D0D",
"7T    c #6B6215",
"7U    c #7C6C21",
"7V    c #816F27",
"7W    c #816D2C",
"7X    c #836F2C",
"7Y    c #645A18",
"7Z    c #544D0F",
"7&    c #5F5612",
"8     c #5F530F",
"80    c #5E5A26",
"81    c #393940",
"82    c #4D4744",
"83    c #86743A",
"84    c #B79B32",
"85    c #9B8523",
"86    c #575005",
"87    c #585005",
"88    c #5C5303",
"89    c #4B4621",
"8a    c #38395E",
"8b    c #7F6B28",
"8c    c #806D21",
"8d    c #706616",
"8e    c #6D630F",
"8f    c #83760F",
"8g    c #827024",
"8h    c #7F7513",
"8i    c #897621",
"8j    c #95871F",
"8k    c #AF9F36",
"8l    c #E5D883",
"8m    c #EAE6BD",
"8n    c #AEA874",
"8o    c #83762B",
"8p    c #806D28",
"8q    c #7D6A28",
"8r    c #4C440F",
"8s    c #665B1C",
"8t    c #675D1A",
"8u    c #7A6E20",
"8v    c #9D8926",
"8w    c #AE9329",
"8x    c #B3942C",
"8y    c #B3962F",
"8z    c #B5982F",
"8A    c #766811",
"8B    c #605704",
"8C    c #655E04",
"8D    c #6C6203",
"8E    c #3B3C3D",
"8F    c #333563",
"8G    c #565140",
"8H    c #7E6E1E",
"8I    c #7D6F1A",
"8J    c #7E6E10",
"8K    c #80711A",
"8L    c #7A6D1B",
"8M    c #787011",
"8N    c #7C7211",
"8O    c #80731A",
"8P    c #887524",
"8Q    c #8F801C",
"8R    c #AC9C31",
"8S    c #D6C86B",
"8T    c #EDE7B4",
"8U    c #BFB68A",
"8V    c #86752A",
"8W    c #534915",
"8X    c #60531D",
"8Y    c #665A1F",
"8Z    c #6A5F1F",
"8&    c #847327",
"9     c #9D8527",
"90    c #AC8E29",
"91    c #AC8D2A",
"92    c #AE8F2B",
"93    c #A98C2A",
"94    c #6A6304",
"95    c #6B6302",
"96    c #6A6203",
"97    c #645E07",
"98    c #2E3050",
"99    c #313462",
"9a    c #30335F",
"9b    c #5B5535",
"9c    c #7D6E18",
"9d    c #83720D",
"9e    c #7D6E21",
"9f    c #796D1B",
"9g    c #776F0E",
"9h    c #776F0D",
"9i    c #786F0E",
"9j    c #7C7115",
"9k    c #80701F",
"9l    c #877723",
"9m    c #918419",
"9n    c #B2A134",
"9o    c #D0C354",
"9p    c #D0C364",
"9q    c #74681D",
"9r    c #5F5316",
"9s    c #66591F",
"9t    c #6E5F21",
"9u    c #846F28",
"9v    c #A58826",
"9w    c #A98B28",
"9x    c #AA8D28",
"9y    c #AB8D2A",
"9z    c #967F1F",
"9A    c #686401",
"9B    c #696402",
"9C    c #534E1E",
"9D    c #31355F",
"9E    c #31335E",
"9F    c #2E325D",
"9G    c #454342",
"9H    c #81770A",
"9I    c #7B6A20",
"9J    c #7A6C16",
"9K    c #766E0D",
"9L    c #76700F",
"9M    c #797012",
"9N    c #7E6F1C",
"9O    c #806F24",
"9P    c #837A15",
"9Q    c #8B7D13",
"9R    c #8A7A1B",
"9S    c #897E16",
"9T    c #5A510C",
"9U    c #6C5F20",
"9V    c #7B6729",
"9W    c #8D742C",
"9X    c #B08D2B",
"9Y    c #AA8C27",
"9Z    c #AC8E26",
"9&    c #AB8F29",
"a     c #7D6E0F",
"a0    c #686402",
"a1    c #6A6402",
"a2    c #3C3A3D",
"a3    c #2C2E55",
"a4    c #323460",
"a5    c #31335D",
"a6    c #343332",
"a7    c #746E0B",
"a8    c #746420",
"a9    c #756B13",
"aa    c #766F0F",
"ab    c #766F0D",
"ac    c #766E0E",
"ad    c #776E0F",
"ae    c #776D12",
"af    c #77691A",
"ag    c #7B6A24",
"ah    c #78720F",
"ai    c #756B08",
"aj    c #615904",
"ak    c #4F4609",
"al    c #766622",
"am    c #7F6C28",
"an    c #92782B",
"ao    c #AC8C23",
"ap    c #AC8E24",
"aq    c #AD8F25",
"ar    c #AC9026",
"as    c #686505",
"at    c #686503",
"au    c #636007",
"av    c #2E2F4E",
"aw    c #2B2E54",
"ax    c #30345F",
"ay    c #30325E",
"az    c #2E3259",
"aA    c #121425",
"aB    c #54560C",
"aC    c #6A5F1B",
"aD    c #6E6713",
"aE    c #736C0F",
"aF    c #756E0E",
"aG    c #756E0D",
"aH    c #766E0F",
"aI    c #766B13",
"aJ    c #756918",
"aK    c #746421",
"aL    c #6A6315",
"aM    c #656603",
"aN    c #665D02",
"aO    c #594D0A",
"aP    c #76671E",
"aQ    c #816E27",
"aR    c #927824",
"aS    c #AC8D23",
"aT    c #AD8F23",
"aU    c #AD8F24",
"aV    c #977F1A",
"aW    c #666402",
"aX    c #666401",
"aY    c #676503",
"aZ    c #51501E",
"a&    c #2A2D53",
"b     c #2C2E54",
"b0    c #32345E",
"b1    c #232543",
"b2    c #121525",
"b3    c #161725",
"b4    c #424315",
"b5    c #665C1A",
"b6    c #6C6312",
"b7    c #6F690F",
"b8    c #776F11",
"b9    c #756C15",
"ba    c #74681A",
"bb    c #716122",
"bc    c #675F16",
"bd    c #606308",
"be    c #5C5B03",
"bf    c #5C5505",
"bg    c #625702",
"bh    c #63571F",
"bi    c #9A8122",
"bj    c #AE9022",
"bk    c #AF9023",
"bl    c #7D710E",
"bm    c #666601",
"bn    c #666602",
"bo    c #676502",
"bp    c #3D3E36",
"bq    c #2A2F53",
"br    c #32355F",
"bs    c #151528",
"bt    c #141527",
"bu    c #141326",
"bv    c #121526",
"bw    c #25271F",
"bx    c #545217",
"by    c #665F16",
"bz    c #6B650F",
"bA    c #716B0F",
"bB    c #756D10",
"bC    c #756A14",
"bD    c #746918",
"bE    c #6E611F",
"bF    c #645F13",
"bG    c #616504",
"bH    c #645B01",
"bI    c #645903",
"bJ    c #625903",
"bK    c #37363A",
"bL    c #8C762C",
"bM    c #AE9120",
"bN    c #AF9121",
"bO    c #B19223",
"bP    c #666106",
"bQ    c #666703",
"bR    c #676702",
"bS    c #636208",
"bT    c #2E2F4D",
"bU    c #2B2F53",
"bV    c #151526",
"bW    c #131527",
"bX    c #131525",
"bY    c #131425",
"bZ    c #131426",
"b&    c #121224",
"c     c #3B3D18",
"c0    c #60591A",
"c1    c #6A650E",
"c2    c #6D670E",
"c3    c #706810",
"c4    c #726817",
"c5    c #695D1E",
"c6    c #616010",
"c7    c #646301",
"c8    c #645B02",
"c9    c #655A04",
"ca    c #615705",
"cb    c #24253C",
"cc    c #564C3E",
"cd    c #B0921F",
"ce    c #B19121",
"cf    c #9B8318",
"cg    c #453B08",
"ch    c #605E02",
"ci    c #666603",
"cj    c #54541A",
"ck    c #2B2E53",
"cl    c #2D3055",
"cm    c #1C1D36",
"cn    c #141628",
"co    c #131627",
"cp    c #131526",
"cq    c #121424",
"cr    c #1C1E22",
"cs    c #525216",
"ct    c #665B19",
"cu    c #66610E",
"cv    c #685F13",
"cw    c #615A1B",
"cx    c #615F0E",
"cy    c #666102",
"cz    c #675D02",
"cA    c #665D03",
"cB    c #50490E",
"cC    c #131427",
"cD    c #262A4E",
"cE    c #A88D22",
"cF    c #B2931F",
"cG    c #77650F",
"cH    c #413608",
"cI    c #473E07",
"cJ    c #626202",
"cK    c #3F3F38",
"cL    c #2D2F55",
"cM    c #2C3056",
"cN    c #17192B",
"cO    c #161728",
"cP    c #151627",
"cQ    c #141526",
"cR    c #111424",
"cS    c #32311E",
"cT    c #605916",
"cU    c #635B14",
"cV    c #61571A",
"cW    c #615B14",
"cX    c #656402",
"cY    c #6C6302",
"cZ    c #2E2B1C",
"c&    c #131223",
"d     c #202341",
"d0    c #796A33",
"d1    c #B3941F",
"d2    c #796F08",
"d3    c #777006",
"d4    c #5F5607",
"d5    c #615A09",
"d6    c #30304F",
"d7    c #2D3054",
"d8    c #2E3056",
"d9    c #1F2039",
"da    c #161729",
"db    c #151729",
"dc    c #151728",
"dd    c #151529",
"de    c #141528",
"df    c #151527",
"dg    c #131325",
"dh    c #181A23",
"di    c #423D1E",
"dj    c #5D551B",
"dk    c #646010",
"dl    c #6E6805",
"dm    c #2F2D1D",
"dn    c #121324",
"do    c #141425",
"dp    c #434045",
"dq    c #A48A17",
"dr    c #736B06",
"ds    c #696108",
"dt    c #534D1E",
"du    c #363843",
"dv    c #2D2F54",
"dw    c #2C3055",
"dx    c #2C2F56",
"dy    c #1D1E35",
"dz    c #171729",
"dA    c #161829",
"dB    c #141728",
"dC    c #141627",
"dD    c #141325",
"dE    c #1A1B22",
"dF    c #26251E",
"dG    c #131326",
"dH    c #1E213B",
"dI    c #5F5629",
"dJ    c #424034",
"dK    c #2E304F",
"dL    c #2B2F52",
"dM    c #2B3053",
"dN    c #2C2F54",
"dO    c #2D3155",
"dP    c #2D3056",
"dQ    c #2E3257",
"   0 1 2 3 4 5 6 7 8 9 a b c d e f g h i j k l m n o p q r s s t",
" u v w 5 x y z A B C D E F G H I J K L M N O P Q R S T U V W X Y",
" Z &0 000102030405060708090a0b0c0d0e0f0g0h0i0j0k0l0m0n0o0p0q0q0r",
"0s0t0u0v0w0x0y0z0A0B0C0D0E0F0G0H0I0J0K0L0M0N0O0P0Q0R0S0T0U0V0W0X",
"0Y0Z0&1 101112131415161718191a1b1c1d1e1f1g1h1i1j1k1l1m1n1o1p1q1r",
"1s1t1u1v1w1x1y1z1A1B1C1D1E1F1G1H1I1J1K1L1M1N1O1P1Q1R1S1T1U1V1W1X",
"1Y1Z1&2 202122232425262728292a2b2c2d2e2f2g2h2h2i2j2k2l2m2n2o2p2q",
"2r2s0b2t2u2v2w2x2y2z2A2B2C2D2E2F2G2H2I2J2K2L2L2M2N2O2P2Q2R2S2T2U",
"2V2W2X2Y2Z2&3 303132333435363738393a3b3c3d3e3e3f3g3g3h3i3j3k3l3m",
"3n3o3p3q3r3s3t3u3v3w3x3y3z3A3B3C3D3E3F3G3H3I3J3K3L3M3N3O3h3P3Q3R",
"3S3T3U3V3W3X3Y3Z3&4 404142434445464748494a4b4c4d4e4f4g4h4i4j4k4k",
"4l4m4n4o4p4q4r4s4t4u4v4w4x4y4z4A4B4C4D4E4F4G4H4I4J4K4L4M4N4O4P4Q",
"4R4S4T4U4V4W4X4Y4Z4&5 505152535455565758595a5b5c5c5d5e5f5g5h5i5j",
"5k5l5m5n5o5p5q5r5s5t5u5v5w5x5y5z5A5B5C5D5E5F5G5H5I5J5K5L4K5M5N5O",
"5P5Q5R5S5T5U5V5W5X5Y5Z5&6 606162636465666768696a6b6c6d6e5L6f6g6h",
"6i6j6k6l6m6n6o6p6q6r6s6t6u6v6w6x6y6z6A6B6C6D6E6F6G6H6I6J6K6L5g6M",
"6N6O6P6Q6R6S6T6U6V6W6X6Y6Z6&7 70717273747576777878796H6d6d7a6f7b",
"7c7d7e7f7g7h7i7j7k7l7m7n7o7f7p7q7r7s7t7u7v7w7x7y7z7A7B7C7D7E7F7G",
"7H6P7I7J7K7L7M7N7O7P7Q7R7S7T7U7V7W7X7Y7Z7&8 80818283848586878889",
"8a8b8c8d8e8f8g8h8i8j8k8l8m8n8o7t8p8q8r8s8t8u8v8w8x8y8z8A8B8C8D8E",
"8F8G8H8I8J8K8L8M8N8O8P8Q8R8S8T8U8V8W8X8Y8Z8&9 909192939495969798",
"999a9b9c9d9e9f9g9h9i9j9k9l9m9n9o9p9q9r9s9t9u9v9w9x9y9z5F9A9B9C7a",
"9D9E9F9G9H9I9J9K9g9h9L9M9N9O9P9Q9R9S9T9U9V9W9X9Y9Z9&a a05Fa1a2a3",
"a4a54ja6a7a8a9aaabacaaadaeafagahaiajakalamanaoapaqarasat9Bauavaw",
"axayazaAaBaCaDaEaFaGaHaHaIaJaKaLaMaNaOaPaQaRaSaTaUaVaWaXaYaZa&b ",
"b04kb1b2b3b4b5b6b7aEaHb8b9babbbcbdbebfbgbhbibjbjbkblbmbnbobpbqa3",
"br4kbsbtbubvbwbxbybzbAbBbCbDbEbFbGbHbIbJbKbLbMbNbObPbQbRbSbTawa3",
"brbUbVbWbXbYbZb&c c0c1c2c3c4c5c6c7c8c9cacbcccdcecfcgchcicjck7acl",
"3QcmcncocpbWcqbZcqcrcsctcucvcwcxcyczcAcBcCcDcEcFcGcHcIcJcKawcL7G",
"cMcNcOcPcPbZcQbZbZcqcRcScTcUcVcWcX8DcYcZc&d d0d1d2d3d4d5d6d7cld8",
"d9dadbdcddcndedfcpbZbZdgdhdidjdkdl7Zdmdndobvdpdqdrdsdtdudvdwdxd8",
"dydzdAdbdBdCdCbtcPdCbZcpdDb2dEdFdGcpcpbZbZcQdHdIdJdKdLdMdNdOdPdQ"};
